Papirus/64x64/apps/spacemacs.svg

<?xml version="1.0" encoding="UTF-8" standalone="no"?>
<svg
   id="_图层_1"
   version="1.1"
   viewBox="0 0 64 64" width="64" height="64"
   sodipodi:docname="spacemacs.svg"
   xml:space="preserve"
   inkscape:version="1.4 (e7c3feb100, 2024-10-09)"
   xmlns:inkscape="http://www.inkscape.org/namespaces/inkscape"
   xmlns:sodipodi="http://sodipodi.sourceforge.net/DTD/sodipodi-0.dtd"
   xmlns:xlink="http://www.w3.org/1999/xlink"
   xmlns="http://www.w3.org/2000/svg"
   xmlns:svg="http://www.w3.org/2000/svg"><sodipodi:namedview
     id="namedview26"
     pagecolor="#505050"
     bordercolor="#eeeeee"
     borderopacity="1"
     inkscape:showpageshadow="0"
     inkscape:pageopacity="0"
     inkscape:pagecheckerboard="0"
     inkscape:deskcolor="#505050"
     inkscape:zoom="10.6875"
     inkscape:cx="32"
     inkscape:cy="32"
     inkscape:window-width="1920"
     inkscape:window-height="939"
     inkscape:window-x="0"
     inkscape:window-y="34"
     inkscape:window-maximized="1"
     inkscape:current-layer="_图层_1" /><!-- Generator: Adobe Illustrator 29.0.1, SVG Export Plug-In . SVG Version: 2.1.0 Build 192)  --><defs
     id="defs6"><style
       id="style1">
      .st0 {
        fill-opacity: .5;
      }

      .st0, .st1, .st2, .st3, .st4, .st5, .st6, .st7 {
        fill: #fff;
      }

      .st8 {
        fill: #133c9a;
      }

      .st2, .st9 {
        display: none;
      }

      .st3 {
        fill-opacity: .2;
      }

      .st4 {
        fill-opacity: .9;
      }

      .st10 {
        fill: #3370ff;
      }

      .st11 {
        fill: url(#_未命名的渐变_3);
      }

      .st12 {
        fill: url(#_未命名的渐变);
      }

      .st5 {
        fill-opacity: .3;
      }

      .st6 {
        fill-opacity: 0;
      }

      .st7 {
        fill-opacity: .7;
      }

      .st13 {
        fill: #00d6b9;
      }

      .st14 {
        fill: url(#_未命名的渐变_2);
      }
    </style><radialGradient
       id="_未命名的渐变"
       data-name="未命名的渐变"
       cx="123.9"
       cy="-40.2"
       fx="123.9"
       fy="-40.2"
       r="59.4"
       gradientTransform="translate(-26.8 25.5) scale(.6 -.7)"
       gradientUnits="userSpaceOnUse"><stop
         offset="0"
         stop-color="#db202e"
         id="stop1" /><stop
         offset="1"
         stop-color="#e01b24"
         id="stop2" /></radialGradient><radialGradient
       id="_未命名的渐变_2"
       data-name="未命名的渐变 2"
       cx="67.6"
       cy="26.8"
       fx="67.6"
       fy="26.8"
       r="105.2"
       gradientTransform="translate(-26.6 25.3) scale(.6 -.7)"
       gradientUnits="userSpaceOnUse"><stop
         offset="0"
         stop-color="#ffb648"
         id="stop3" /><stop
         offset="1"
         stop-color="#ff7800"
         stop-opacity="0"
         id="stop4" /></radialGradient><radialGradient
       id="_未命名的渐变_3"
       data-name="未命名的渐变 3"
       cx="61.7"
       cy="18.6"
       fx="61.7"
       fy="18.6"
       r="68"
       gradientTransform="translate(-26.8 25.8) scale(.6 -.7)"
       gradientUnits="userSpaceOnUse"><stop
         offset="0"
         stop-color="#c64600"
         id="stop5" /><stop
         offset="1"
         stop-color="#a51d2d"
         id="stop6" /></radialGradient><linearGradient
       id="linearGradient1261"><stop
         style="stop-color:#4f4f4f"
         offset="0"
         id="stop1-7" /><stop
         style="stop-color:#3f3f3f"
         offset="1"
         id="stop2-0" /></linearGradient><linearGradient
       id="linearGradient1263"
       x1="34.241"
       x2="37.169"
       y1="38.945"
       y2="30.342"
       gradientTransform="matrix(1.3919157,0,0,1.3888889,-1.321022,-0.4865665)"
       gradientUnits="userSpaceOnUse"
       xlink:href="#linearGradient1261" /></defs><path
     class="st1"
     d="M47.5,64.1H13.8c-7.6,0-13.8-6.3-13.8-13.8V13.7C0,6.2,6.2,0,13.7,0h36.6c7.5,0,13.7,6.2,13.7,13.7v36.6c0,7.5-6.2,13.7-13.7,13.7h-2.9.1Z"
     id="path6"
     style="fill:#808080;fill-opacity:1" /><g
     id="g26"
     transform="matrix(0.90643275,0,0,0.8967563,2.9005848,4.7080442)"><rect
       style="opacity:0.2"
       width="56"
       height="56"
       x="4"
       y="5"
       rx="28"
       ry="28"
       id="rect1" /><rect
       style="fill:#8366b2"
       width="56"
       height="56"
       x="4"
       y="4"
       rx="28"
       ry="28"
       id="rect2" /><path
       style="opacity:0.1;fill:#ffffff"
       d="M 32,4 C 16.488,4 4,16.488 4,32 4,32.11345 4.01128,32.224113 4.017578,32.335938 4.3691213,17.134181 16.710728,5 32,5 47.289272,5 59.630879,17.134181 59.982422,32.335938 59.98872,32.224113 60,32.11345 60,32 60,16.488 47.512,4 32,4 Z"
       id="path2" /><path
       style="opacity:0.2"
       d="M 12.800781,4 C 11.098193,3.9666062 9.7542244,4.4414304 8.578125,5.4726562 5.7478345,7.9670915 5.2580521,13.023546 7.171875,20.025391 7.344463,19.694535 7.5198259,19.365819 7.7050781,19.042969 6.4632389,13.900442 6.6480582,12.148733 8.9960938,10.105469 11.01959,8.3524921 14.224374,8.2078807 18.230469,9.6914062 25.35032,12.327948 33.301624,16.641212 41.398438,26.917969 c 0.764161,0.969898 1.301531,2.226618 1.953124,3.039062 -2.073839,0.03722 -5.221955,-0.164999 -7.933593,-0.652343 -10.20116,-1.833165 -19.80802,-6.000176 -24.3125,-10.699219 -0.403354,-0.420775 -0.732808,-0.734136 -0.734375,-0.699219 -0.0018,0.03584 0.907898,1.881379 2.019531,4.097656 l 1.671875,3.875 2.484375,1.203125 c 2.702476,1.327494 6.144712,2.877727 13.621094,6.136719 8.190668,3.570286 11.858657,5.286513 15.578125,7.292969 2.980818,1.608 6.010514,3.569648 7.539062,4.878906 0.520832,0.447942 0.641758,0.562205 0.6875,0.609375 0.0017,-0.03374 0.03858,-0.198739 0.02344,-0.332031 -0.09904,-0.726948 -0.669373,-3.601401 -1.199219,-6.261719 -0.11462,-0.602596 -0.240017,-1.203038 -0.359375,-1.804688 -0.05488,-0.274182 -0.126941,-0.646598 -0.175781,-0.890624 -0.07768,-0.388126 -0.16628,-0.754375 -0.246094,-1.136719 -1.123258,-5.39338 -2.431374,-10.748434 -4.09375,-16.019531 -0.766596,-2.400802 -1.249752,-3.563682 -2.039063,-4.988282 -0.292133,-0.527431 -3.51906,-2.689703 -4.074218,-2.980468 -0.009,-0.0046 -0.0445,-0.0454 -0.05078,-0.04688 l -0.0039,0.0078 c -0.02028,-0.01006 -0.162615,-0.107059 -0.171875,-0.109375 l -0.0039,0.0039 c -0.0072,-0.0024 -0.0097,-0.0033 -0.01172,-0.0039 -0.03274,0.02993 0.219732,0.579502 0.492188,1.058594 2.790792,4.908279 4.623678,12.876322 3.691406,17 -0.0156,0.06408 -0.02722,0.129152 -0.05078,0.195312 -0.0012,0.0034 -0.0031,0.0091 -0.0039,0.01172 v 0.0039 c -0.0022,-7e-4 -0.0097,-0.0033 -0.01172,-0.0039 -0.02176,0.008 -0.08165,0.0196 -0.109375,0.02734 C 44.812983,28.753809 44.145098,27.31454 43.214844,26.097656 37.501354,18.762539 27.067892,7.9893821 16.292969,4.5976562 14.972108,4.2228853 13.822334,4.0200362 12.800781,4 Z"
       id="path3" /><path
       style="fill:#ffffff"
       d="M 12.800781,3 C 11.098193,2.9666062 9.7542244,3.4414304 8.578125,4.4726562 5.7478345,6.9670915 5.2580521,12.023546 7.171875,19.025391 7.344463,18.694535 7.5198259,18.365819 7.7050781,18.042969 6.4632389,12.900442 6.6480582,11.148733 8.9960938,9.1054688 11.01959,7.3524921 14.224374,7.2078807 18.230469,8.6914062 25.35032,11.327948 33.301624,15.641212 41.398438,25.917969 c 0.764161,0.969898 1.301531,2.226618 1.953124,3.039062 -2.073839,0.03722 -5.221955,-0.164999 -7.933593,-0.652343 -10.20116,-1.833165 -19.80802,-6.000176 -24.3125,-10.699219 -0.403354,-0.420775 -0.732808,-0.734136 -0.734375,-0.699219 -0.0018,0.03584 0.907898,1.881379 2.019531,4.097656 l 1.671875,3.875 2.484375,1.203125 c 2.702476,1.327494 6.144712,2.877727 13.621094,6.136719 8.190668,3.570286 11.858657,5.286513 15.578125,7.292969 2.980818,1.608 6.010514,3.569648 7.539062,4.878906 0.520832,0.447942 0.641758,0.562205 0.6875,0.609375 0.0017,-0.03374 0.03858,-0.198739 0.02344,-0.332031 -0.09904,-0.726948 -0.669373,-3.601401 -1.199219,-6.261719 -0.11462,-0.602596 -0.240017,-1.203038 -0.359375,-1.804688 -0.05488,-0.274182 -0.126941,-0.646598 -0.175781,-0.890624 -0.07768,-0.388126 -0.16628,-0.754375 -0.246094,-1.136719 -1.123258,-5.39338 -2.431374,-10.748434 -4.09375,-16.019531 -0.766596,-2.400802 -1.249752,-3.563682 -2.039063,-4.988282 -0.292133,-0.527431 -3.51906,-2.689703 -4.074218,-2.980468 -0.009,-0.0046 -0.0445,-0.0454 -0.05078,-0.04688 l -0.0039,0.0078 c -0.02028,-0.01006 -0.162615,-0.107059 -0.171875,-0.109375 l -0.0039,0.0039 c -0.0072,-0.0024 -0.0097,-0.0033 -0.01172,-0.0039 -0.03274,0.02993 0.219732,0.579502 0.492188,1.058594 2.790792,4.908279 4.623678,12.876322 3.691406,17 -0.0156,0.06408 -0.02722,0.129152 -0.05078,0.195312 -0.0012,0.0034 -0.0031,0.0091 -0.0039,0.01172 v 0.0039 c -0.0022,-7e-4 -0.0097,-0.0033 -0.01172,-0.0039 -0.02176,0.008 -0.08165,0.0196 -0.109375,0.02734 C 44.812983,27.753809 44.145098,26.31454 43.214844,25.097656 37.501354,17.762539 27.067892,6.9893821 16.292969,3.5976562 14.972108,3.2228853 13.822334,3.0200362 12.800781,3 Z"
       id="path4" /></g></svg>

<svg xmlns="http://www.w3.org/2000/svg" width="64" height="64" version="1">
 <rect style="opacity:0.2" width="56" height="56" x="4" y="5" rx="28" ry="28"/>
 <rect style="fill:#8366b2" width="56" height="56" x="4" y="4" rx="28" ry="28"/>
 <path style="opacity:0.1;fill:#ffffff" d="M 32,4 C 16.488,4 4,16.488 4,32 c 0,0.11345 0.01128,0.224113 0.017578,0.335938 C 4.3691213,17.134181 16.710728,5 32,5 47.289272,5 59.630879,17.134181 59.982422,32.335938 59.98872,32.224113 60,32.11345 60,32 60,16.488 47.512,4 32,4 Z"/>
 <path style="opacity:0.2" d="M 12.800781,4 C 11.098193,3.9666062 9.7542244,4.4414304 8.578125,5.4726562 5.7478345,7.9670915 5.2580521,13.023546 7.171875,20.025391 7.344463,19.694535 7.5198259,19.365819 7.7050781,19.042969 6.4632389,13.900442 6.6480582,12.148733 8.9960938,10.105469 11.01959,8.3524921 14.224374,8.2078807 18.230469,9.6914062 25.35032,12.327948 33.301624,16.641212 41.398438,26.917969 c 0.764161,0.969898 1.301531,2.226618 1.953124,3.039062 -2.073839,0.03722 -5.221955,-0.164999 -7.933593,-0.652343 -10.20116,-1.833165 -19.80802,-6.000176 -24.3125,-10.699219 -0.403354,-0.420775 -0.732808,-0.734136 -0.734375,-0.699219 -0.0018,0.03584 0.907898,1.881379 2.019531,4.097656 l 1.671875,3.875 2.484375,1.203125 c 2.702476,1.327494 6.144712,2.877727 13.621094,6.136719 8.190668,3.570286 11.858657,5.286513 15.578125,7.292969 2.980818,1.608 6.010514,3.569648 7.539062,4.878906 0.520832,0.447942 0.641758,0.562205 0.6875,0.609375 0.0017,-0.03374 0.03858,-0.198739 0.02344,-0.332031 -0.09904,-0.726948 -0.669373,-3.601401 -1.199219,-6.261719 -0.11462,-0.602596 -0.240017,-1.203038 -0.359375,-1.804688 -0.05488,-0.274182 -0.126941,-0.646598 -0.175781,-0.890624 -0.07768,-0.388126 -0.16628,-0.754375 -0.246094,-1.136719 -1.123258,-5.39338 -2.431374,-10.748434 -4.09375,-16.019531 -0.766596,-2.400802 -1.249752,-3.563682 -2.039063,-4.988282 -0.292133,-0.527431 -3.51906,-2.689703 -4.074218,-2.980468 -0.009,-0.0046 -0.0445,-0.0454 -0.05078,-0.04688 l -0.0039,0.0078 c -0.02028,-0.01006 -0.162615,-0.107059 -0.171875,-0.109375 l -0.0039,0.0039 c -0.0072,-0.0024 -0.0097,-0.0033 -0.01172,-0.0039 -0.03274,0.02993 0.219732,0.579502 0.492188,1.058594 2.790792,4.908279 4.623678,12.876322 3.691406,17 -0.0156,0.06408 -0.02722,0.129152 -0.05078,0.195312 -0.0012,0.0034 -0.0031,0.0091 -0.0039,0.01172 l 0,0.0039 c -0.0022,-7e-4 -0.0097,-0.0033 -0.01172,-0.0039 -0.02176,0.008 -0.08165,0.0196 -0.109375,0.02734 C 44.812983,28.753809 44.145098,27.31454 43.214844,26.097656 37.501354,18.762539 27.067892,7.9893821 16.292969,4.5976562 14.972108,4.2228853 13.822334,4.0200362 12.800781,4 Z"/>
 <path style="fill:#ffffff" d="M 12.800781 3 C 11.098193 2.9666062 9.7542244 3.4414304 8.578125 4.4726562 C 5.7478345 6.9670915 5.2580521 12.023546 7.171875 19.025391 C 7.344463 18.694535 7.5198259 18.365819 7.7050781 18.042969 C 6.4632389 12.900442 6.6480582 11.148733 8.9960938 9.1054688 C 11.01959 7.3524921 14.224374 7.2078807 18.230469 8.6914062 C 25.35032 11.327948 33.301624 15.641212 41.398438 25.917969 C 42.162599 26.887867 42.699969 28.144587 43.351562 28.957031 C 41.277723 28.994251 38.129607 28.792032 35.417969 28.304688 C 25.216809 26.471523 15.609949 22.304512 11.105469 17.605469 C 10.702115 17.184694 10.372661 16.871333 10.371094 16.90625 C 10.369294 16.94209 11.278992 18.787629 12.390625 21.003906 L 14.0625 24.878906 L 16.546875 26.082031 C 19.249351 27.409525 22.691587 28.959758 30.167969 32.21875 C 38.358637 35.789036 42.026626 37.505263 45.746094 39.511719 C 48.726912 41.119719 51.756608 43.081367 53.285156 44.390625 C 53.805988 44.838567 53.926914 44.95283 53.972656 45 C 53.974356 44.96626 54.011234 44.801261 53.996094 44.667969 C 53.897054 43.941021 53.326721 41.066568 52.796875 38.40625 C 52.682255 37.803654 52.556858 37.203212 52.4375 36.601562 C 52.38262 36.32738 52.310559 35.954964 52.261719 35.710938 C 52.184039 35.322812 52.095439 34.956563 52.015625 34.574219 C 50.892367 29.180839 49.584251 23.825785 47.921875 18.554688 C 47.155279 16.153886 46.672123 14.991006 45.882812 13.566406 C 45.590679 13.038975 42.363752 10.876703 41.808594 10.585938 C 41.799594 10.581338 41.764093 10.540543 41.757812 10.539062 L 41.753906 10.546875 C 41.733626 10.536815 41.591291 10.439816 41.582031 10.4375 L 41.578125 10.441406 C 41.570925 10.439006 41.568406 10.4381 41.566406 10.4375 C 41.533666 10.46743 41.786138 11.017002 42.058594 11.496094 C 44.849386 16.404373 46.682272 24.372416 45.75 28.496094 C 45.7344 28.560174 45.722779 28.625246 45.699219 28.691406 C 45.698019 28.694806 45.696113 28.700525 45.695312 28.703125 L 45.695312 28.707031 C 45.693112 28.706331 45.685594 28.703725 45.683594 28.703125 C 45.661834 28.711125 45.601939 28.722729 45.574219 28.730469 C 44.812983 27.753809 44.145098 26.31454 43.214844 25.097656 C 37.501354 17.762539 27.067892 6.9893821 16.292969 3.5976562 C 14.972108 3.2228853 13.822334 3.0200362 12.800781 3 z"/>
</svg>
